X:1
T:Newbold, CM
T:Newbold, CM
T:George Kingsley (1811-1884)
T:Public Domain Courtesy of the Cyber Hymnal™
C:George Kingsley (1811-1884)
Z:Public Domain
Z:Courtesy of the Cyber Hymnal™
%%score ( 1 2 ) ( 3 4 )
L:1/8
M:3/2
K:G
V:1 treble 
V:2 treble 
V:3 bass 
V:4 bass 
V:1
 [B,D]4 | [B,D]2 [CE]2 [B,D]2 [DG]2 [DF]2 [DA]2 | [DG]6 [DG]2 [DA]2 [DB]2 | [Ec]4 [Ge]4 [Fd]4 | %4
 [GB]6 [Dd]2 [Dd]2 [DF]2 | [DG]6 [Dd]2 [Dd]2 [DF]2 | [DG]6 [DB]2 [Dc]2 [Gd]2 | (e4 A4) B2 A2 | %8
 [DA]6 [FA]2 [GB]2 [Ac]2 | d4 G4 (A2 F2) | [DG]8 |] %11
V:2
 x4 | x12 | x12 | x12 | x12 | x12 | x12 | E8 E4 | x12 | D8 D4 | x8 |] %11
V:3
 [G,,G,]4 | [G,,G,]2 [G,,G,]2 [G,,G,]2 [G,,B,]2 [D,A,]2 [D,C]2 | [G,,B,]6 [G,B,]2 [F,C]2 [=F,D]2 | %3
 [E,C]4 C,4 [D,A,]4 | [G,,B,]6 [G,B,]2 [A,C]2 [A,C]2 | [G,B,]6 [G,B,]2 [A,C]2 [A,C]2 | %6
 [G,B,]6 G,2 [G,A,]2 [G,B,]2 | [C,C]8 [^C,G,]4 | [D,F,]6 [CD]2 [B,D]2 [A,C]2 | [G,B,]8 (C2 B,2) | %10
 [G,B,]8 |] %11
V:4
 x4 | x12 | x12 | x4 C,4 x4 | x12 | x12 | x6 G,2 x4 | x12 | x12 | x8 D,4 | x8 |] %11

